assets/icons/uE047-searchfile.svg

<svg xmlns="http://www.w3.org/2000/svg" width="896" height="1232" viewBox="0 0 896 1232"><path d="M140 700v-28h336v28H140zm0 112v-28h336v28H140zm723-247q33 33 33 79t-33 79-79 33-79-33l-89-89v262q0 23-16.5 39.5T560 952H56q-23 0-39.5-16.5T0 896V336q0-23 16.5-39.5T56 280h148q24-97 104-160.5T490 56q122 0 208 86t86 208q0 58-23 113zM560 896V621q-34 9-70 9-80 0-147-42H140v-28h165q-41-36-65-84H140v-28h88q-18-51-18-98 0-9 1-14H56v560h504zm264-212q16-16 16-40t-16-40L693 474q35-57 35-124 0-98-70-168t-168-70-168 70-70 168 70 168 168 70q67 0 124-35l130 131q16 16 40 16t40-16zM490 168q75 0 128.5 53.5T672 350q0 76-53.5 129T490 532q-76 0-129-53t-53-129q0-75 53-128.5T490 168zm0 336q64 0 109-45t45-109-45-109-109-45-109 45-45 109 45 109 109 45z"/></svg>

<?xml version="1.0" encoding="UTF-8" standalone="no"?><svg   xmlns:svg="http://www.w3.org/2000/svg"   xmlns="http://www.w3.org/2000/svg"   version="1.1"   width="896"   height="1232"   viewBox="0 0 896 1232">  <path     d="M140 700V672H476V700H140zM140 812V784H476V812H140zM863 565Q896 598 896 644T863 723T784 756T705 723L616 634V896Q616 919 599.5 935.5T560 952H56Q33 952 16.5 935.5T0 896V336Q0 313 16.5 296.5T56 280H204Q228 183 308 119.5T490 56Q612 56 698 142T784 350Q784 408 761 463zM560 896V621Q526 630 490 630Q410 630 343 588H140V560H305Q264 524 240 476H140V448H228Q210 397 210 350Q210 341 211 336H56V896H560zM824 684Q840 668 840 644T824 604L693 474Q728 417 728 350Q728 252 658 182T490 112T322 182T252 350T322 518T490 588Q557 588 614 553L744 684Q760 700 784 700T824 684zM490 168Q565 168 618.5 221.5T672 350Q672 426 618.5 479T490 532Q414 532 361 479T308 350Q308 275 361 221.5T490 168zM490 504Q554 504 599 459T644 350T599 241T490 196T381 241T336 350T381 459T490 504z"     id="icon224" /></svg>
